UI/Discovery-Sharing/SVG/grid-typeA_outline_24px.svg

<svg xmlns="http://www.w3.org/2000/svg" width="24" height="24" viewBox="0 0 24 24"><rect width="24" height="24" style="fill:none"/><path d="M2,11h9V2H2ZM4,4H9V9H4Zm9,18h9V13H13Zm2-7h5v5H15ZM2,22h9V13H2Zm2-7H9v5H4ZM13,2v9h9V2Zm7,7H15V4h5Z"/></svg>

<svg width="24" height="24" viewBox="0 0 24 24" fill="none" xmlns="http://www.w3.org/2000/svg">
<path d="M2 11H11V2H2V11ZM4 4H9V9H4V4ZM13 22H22V13H13V22ZM15 15H20V20H15V15ZM2 22H11V13H2V22ZM4 15H9V20H4V15ZM13 2V11H22V2H13ZM20 9H15V4H20V9Z" fill="#0F1621"/>
</svg>
